svgs/sharp-solid/shoe-prints.svg

<svg xmlns="http://www.w3.org/2000/svg" viewBox="0 0 640 512"><!--! Font Awesome Pro 6.6.0 by @fontawesome - https://fontawesome.com License - https://fontawesome.com/license (Commercial License) Copyright 2024 Fonticons, Inc. --><path d="M320 160l-64 0 0-128L448 0 640 64l0 112L448 224 320 160zM128 32l96 0 0 128-96 0 0-128zm64 320l128-64 192 48 0 112L320 512 128 480l0-128 64 0zM0 480L0 352l96 0 0 128L0 480z"/></svg>

<svg xmlns="http://www.w3.org/2000/svg" viewBox="0 0 640 512"><!--! Font Awesome Pro 6.4.2 by @fontawesome - https://fontawesome.com License - https://fontawesome.com/license (Commercial License) Copyright 2023 Fonticons, Inc. --><path d="M320 160H256V32L448 0 640 64V176L448 224 320 160zM128 32h96V160H128V32zm64 320l128-64 192 48V448L320 512 128 480V352h64zM0 480V352H96V480H0z"/></svg>
